X:1
T:Filled with the Spirit's Power
T:Tune: Henry Lawes, 1638 Text uner copyright; for copyrighted material see Psalter Hymnal 417
T:10 10 10 10 www.hymnary.org/text/filled_with_the_spirits_power
T:Filled with the Spirit's Power
T:This tune is in the public domain. You may freely use this score for personal and congregational worship. If you reproduce the score, please credit Hymnary.org as the source. 
T:This tune is in the public domain. You may freely use this score for personal and congregational worship. If you reproduce the score, please credit Hymnary.org as the source. 
Z:This tune is in the public domain. You may freely use this score for personal and congregational worship. If you reproduce the score, please credit Hymnary.org as the source.
%%score ( 1 2 ) ( 3 4 )
L:1/8
M:4/4
K:C
V:1 treble nm="SOPRANO ALTO" snm="S. A."
V:2 treble 
V:3 bass nm="TENOR BASS" snm="T. B."
V:4 bass 
V:1
 C4 E2 F2 | G2 E2 F2 G2 | A2 B2 c4 | c4 B2 A2 | c2 G2 A2 E2 | G2 ^F2 G4 | G4 E2 A2 | G2 F2 E2 F2 |1 %8
 G2 C2 D4 | D4 G2 E2 | F2 A2 G2 c2 | c2 B2 c4 |] %12
V:2
 G,4 C2 C2 | D2 C2 C2 C2 | F2 F2 E4 | E4 E2 C2 | E2 C2 C2 C2 | D2 DC B,4 | D4 C2 C2 | %7
 C2 B,2 C2 C2 |1 C2 C2 B,4 | B,4 D2 C2 | C2 F2 E3 F | G2 G2 G4 |] %12
V:3
 E,4 G,2 A,2 | B,2 G,2 A,2 G,2 | F,2 F,2 G,4 | A,4 G,2 A,2 | G,2 C2 F,2 G,2 | B,2 A,2 G,4 | %6
 G,4 G,2 F,2 | G,2 G,2 G,2 A,2 |1 G,2 ^F,2 G,4 | G,4 G,2 G,2 | A,2 D2 B,2 C2 | D2 D2 E4 |] %12
V:4
 C,4 C,2 A,,2 | G,,2 C,2 F,2 E,2 | D,2 D,2 C,4 | A,4 E,2 F,2 | C,2 E,2 F,2 C,2 | B,,2 D,2 G,,4 | %6
 B,,4 C,2 F,2 | E,2 D,2 C,2 A,,2 |1 E,2 A,,2 G,,4 | G,,4 B,,2 C,2 | F,2 D,2 E,2 A,2 | %11
 G,2 G,2 C,4 |] %12

